icons/svg/skimap/piste_nordic_blue.svg

<?xml version="1.0" encoding="UTF-8" standalone="no"?>
<svg
   xmlns:dc="http://purl.org/dc/elements/1.1/"
   xmlns:cc="http://creativecommons.org/ns#"
   xmlns:rdf="http://www.w3.org/1999/02/22-rdf-syntax-ns#"
   xmlns:svg="http://www.w3.org/2000/svg"
   xmlns="http://www.w3.org/2000/svg"
   xmlns:sodipodi="http://sodipodi.sourceforge.net/DTD/sodipodi-0.dtd"
   xmlns:inkscape="http://www.inkscape.org/namespaces/inkscape"
   width="32"
   height="32"
   id="svg2"
   version="1.1"
   inkscape:version="0.48.4 r9939"
   sodipodi:docname="piste_nordic_blue.svg">
  <defs
     id="defs13">
    <inkscape:path-effect
       effect="gears"
       id="path-effect3774"
       is_visible="true"
       teeth="6"
       phi="-1.2" />
    <inkscape:path-effect
       effect="bend_path"
       id="path-effect3772"
       is_visible="false"
       bendpath="m 95.790098,316.51174 c 144.429032,-206.42506 223.313032,-11.7428 339.548092,0"
       prop_scale="1.19"
       scale_y_rel="false"
       vertical="false"
       bendpath-nodetypes="cc" />
  </defs>
  <sodipodi:namedview
     pagecolor="#ffffff"
     bordercolor="#666666"
     borderopacity="1"
     objecttolerance="10"
     gridtolerance="10"
     guidetolerance="10"
     inkscape:pageopacity="0"
     inkscape:pageshadow="2"
     inkscape:window-width="1332"
     inkscape:window-height="739"
     id="namedview11"
     showgrid="false"
     inkscape:zoom="18.414035"
     inkscape:cx="14.036851"
     inkscape:cy="16.115177"
     inkscape:window-x="34"
     inkscape:window-y="1024"
     inkscape:window-maximized="1"
     inkscape:current-layer="svg2"
     inkscape:snap-object-midpoints="true"
     inkscape:snap-page="true" />
  <metadata
     id="metadata2975">image/svg+xmlen<rdf:RDF>
  <cc:Work
     rdf:about="">
    <dc:format>image/svg+xml</dc:format>
    <dc:type
       rdf:resource="http://purl.org/dc/dcmitype/StillImage" />
    <dc:title />
  </cc:Work>
</rdf:RDF>
</metadata>
  <path
     sodipodi:type="arc"
     style="color:#000000;fill:#9d9dff;fill-opacity:0.40784313999999999;fill-rule:nonzero;stroke:#e1e1e1;stroke-width:0;stroke-linecap:butt;stroke-linejoin:miter;stroke-miterlimit:4;stroke-opacity:1;stroke-dasharray:none;stroke-dashoffset:0;marker:none;visibility:visible;display:inline;overflow:visible;enable-background:accumulate"
     id="path3772-5"
     sodipodi:cx="4.2358994"
     sodipodi:cy="6.6389098"
     sodipodi:rx="11.241426"
     sodipodi:ry="11.241426"
     d="m 15.461158,7.2416082 a 11.241426,11.241426 0 1 1 0.0012,-0.023332"
     sodipodi:start="0.053639769"
     sodipodi:end="6.3347467"
     sodipodi:open="true"
     transform="matrix(0.9446835,0,0,0.9446835,11.998426,9.7283314)" />
  <path
     sodipodi:type="arc"
     style="color:#000000;fill:#5252e5;fill-opacity:1;fill-rule:nonzero;stroke:#e1e1e1;stroke-width:0;stroke-linecap:butt;stroke-linejoin:miter;stroke-miterlimit:4;stroke-opacity:1;stroke-dasharray:none;stroke-dashoffset:0;marker:none;visibility:visible;display:inline;overflow:visible;enable-background:accumulate"
     id="path3772"
     sodipodi:cx="4.2358994"
     sodipodi:cy="6.6389098"
     sodipodi:rx="11.241426"
     sodipodi:ry="11.241426"
     d="m 15.461158,7.2416082 a 11.241426,11.241426 0 1 1 0.0012,-0.023332"
     sodipodi:start="0.053639769"
     sodipodi:end="6.3347467"
     sodipodi:open="true"
     transform="matrix(0.85912341,0,0,0.85912341,12.360848,10.296358)" />
  <path
     style="font-size:40px;font-style:normal;font-variant:normal;font-weight:normal;font-stretch:normal;text-align:start;line-height:125%;writing-mode:lr-tb;text-anchor:start;color:#000000;fill:#e2e2ff;fill-opacity:1;fill-rule:nonzero;stroke:none;marker:none;visibility:visible;display:inline;overflow:visible;enable-background:accumulate;font-family:NPSPICT3;-inkscape-font-specification:NPSPICT3;stroke-width:1"
     d="m 19.44781,8.516541 c -0.302205,1.06e-5 -0.561257,0.1029809 -0.771827,0.3135547 -0.210591,0.2105922 -0.313566,0.469315 -0.313556,0.7718287 -10e-6,0.302205 0.102975,0.5612566 0.313556,0.7718296 0.21057,0.21059 0.469622,0.313562 0.771827,0.313552 0.291637,10e-6 0.5558,-0.102963 0.771829,-0.313552 0.216008,-0.210573 0.313543,-0.4696246 0.313556,-0.7718296 C 20.533182,9.2994107 20.435655,9.0406879 20.219639,8.8300957 20.00361,8.6195272 19.739447,8.5165516 19.44781,8.516541 z m -3.955618,1.88133 c -0.162145,1.1e-5 -0.315525,0.0631 -0.434154,0.192959 l -1.808973,2.098407 c -0.129516,0.107764 -0.192961,0.223784 -0.192956,0.385914 -5e-6,0.151271 0.06091,0.277994 0.168839,0.385914 0.107916,0.107927 0.234647,0.168843 0.385913,0.168837 0.1618,6e-6 0.291061,-0.06344 0.410034,-0.192957 l 1.688374,-1.953689 0.964785,0.02412 -3.714423,4.293293 -2.508442,-0.02413 c -0.205312,4e-6 -0.366127,0.08739 -0.5065118,0.217077 -0.1403895,0.12968 -0.217079,0.277417 -0.2170768,0.482394 -2.2e-6,0.194435 0.07669,0.371565 0.2170768,0.50651 0.1403848,0.134955 0.3120748,0.192963 0.5065118,0.19296 l 2.918475,0 c 0.118962,3e-6 0.240783,-0.0026 0.337673,-0.02413 0.248476,-0.04318 0.409291,-0.108988 0.506515,-0.217076 l 1.447176,-1.616016 1.688377,1.616016 -0.675351,3.039073 c -0.02177,0.06491 -0.04824,0.101553 -0.04823,0.144718 -1e-5,0.194431 0.07669,0.366126 0.217076,0.506514 0.140377,0.140383 0.312069,0.217075 0.506513,0.217075 0.367105,0 0.588669,-0.176761 0.67535,-0.554751 l 0.820063,-3.690308 c 0.0972,-0.388863 0.06296,-0.684744 -0.120598,-0.868309 l -1.471298,-1.471294 1.591896,-1.857213 1.037144,1.037143 c 0.108081,0.107763 0.245516,0.168846 0.385913,0.168839 0.183546,7e-6 0.357935,-0.07938 0.530633,-0.241198 l 1.688374,-1.688372 c 0.08633,-0.108081 0.120583,-0.232276 0.120598,-0.361797 -1.5e-5,-0.161797 -0.05549,-0.301931 -0.168839,-0.410033 -0.113377,-0.10808 -0.234663,-0.144706 -0.385912,-0.144719 -0.151277,1.3e-5 -0.275466,0.03428 -0.361794,0.120597 l -1.398942,1.39894 -1.688375,-1.688376 C 18.474097,10.46099 18.315649,10.397872 18.121228,10.397862 z m 7.187648,1.736615 -4.245054,8.610708 0.458273,0 4.196817,-8.417751 z m -13.675829,1.061263 0,0.434153 3.666183,0 0,-0.434153 z m -0.5457323,3.389096 -0.00656,1.16746 4.4878653,3.185552 c 0.305644,0.199298 0.41475,0.180129 0.78198,0.207321 0.381338,0.01747 0.978352,-0.299138 1.201857,-0.618737 l -0.547553,-0.502268 c -0.134057,0.193732 -0.368604,0.355097 -0.593581,0.344793 -0.107424,-0.005 -0.224857,-0.04248 -0.317689,-0.106538 z m 14.1250843,4.305066 c -8.49e-4,0.23559 -0.09814,0.484135 -0.289436,0.602991 -0.09134,0.05675 -0.200769,0.09674 -0.313554,0.09649 l -11.89098,0.02413 0,0.892423 11.842741,-0.04823 c 0.364777,-0.0086 0.429584,-0.07987 0.747706,-0.265316 0.32425,-0.201461 0.647886,-0.816003 0.651232,-1.205983 z"
     id="flowRoot3192-4"
     inkscape:connector-curvature="0"
     sodipodi:nodetypes="cscccsccccccccccccccccccccccccccscccccccccccccccccccccccccccccccccsccccccccccc" />
</svg>

<svg width="32" height="32" viewBox="0 0 32 32" fill="none" xmlns="http://www.w3.org/2000/svg">
<path d="M26.6043 16.5694C26.4568 19.3811 25.1987 22.0191 23.1067 23.9034C21.0148 25.7878 18.2601 26.7643 15.4484 26.6182C12.6366 26.4721 9.99796 25.2154 8.11251 23.1244C6.22705 21.0334 5.24914 18.2793 5.39375 15.4675C5.53837 12.6556 6.79368 10.0163 8.8837 8.12979C10.9737 6.24325 13.7274 5.2639 16.5393 5.40706C19.3512 5.55021 21.9911 6.80415 23.8787 8.8932C25.7664 10.9822 26.7472 13.7354 26.6055 16.5474" fill="#9D9DFF" fill-opacity="0.407843"/>
<path d="M25.6439 16.5177C25.5097 19.0748 24.3656 21.4738 22.4631 23.1875C20.5606 24.9012 18.0554 25.7893 15.4983 25.6564C12.9412 25.5236 10.5416 24.3807 8.82688 22.4791C7.11219 20.5775 6.22284 18.0728 6.35436 15.5156C6.48588 12.9585 7.6275 10.5582 9.52823 8.84252C11.429 7.12684 13.9332 6.2362 16.4904 6.36639C19.0477 6.49658 21.4485 7.63694 23.1652 9.53678C24.8818 11.4366 25.7738 13.9404 25.6449 16.4977" fill="#5252E5"/>
<path d="M19.4478 8.5166C19.1456 8.51661 18.8866 8.61958 18.676 8.83016C18.4654 9.04075 18.3624 9.29947 18.3624 9.60198C18.3624 9.90419 18.4654 10.1632 18.676 10.3738C18.8866 10.5844 19.1456 10.6874 19.4478 10.6874C19.7394 10.6874 20.0036 10.5844 20.2196 10.3738C20.4356 10.1632 20.5332 9.90419 20.5332 9.60198C20.5332 9.29947 20.4357 9.04075 20.2196 8.83016C20.0036 8.61959 19.7394 8.51661 19.4478 8.5166ZM15.4922 10.3979C15.33 10.3979 15.1767 10.461 15.058 10.5909L13.2491 12.6893C13.1195 12.7971 13.0561 12.9131 13.0561 13.0752C13.0561 13.2265 13.117 13.3532 13.2249 13.4611C13.3329 13.5691 13.4596 13.63 13.6109 13.63C13.7727 13.63 13.9019 13.5665 14.0209 13.437L15.7093 11.4833L16.6741 11.5074L12.9596 15.8007L10.4512 15.7766C10.2459 15.7766 10.0851 15.864 9.94468 15.9937C9.80429 16.1234 9.7276 16.2711 9.7276 16.4761C9.7276 16.6705 9.80429 16.8476 9.94468 16.9826C10.0851 17.1175 10.2568 17.1755 10.4512 17.1755H13.3697C13.4886 17.1755 13.6104 17.1729 13.7073 17.1514C13.9558 17.1082 14.1166 17.0424 14.2139 16.9343L15.661 15.3183L17.3494 16.9343L16.6741 19.9734C16.6523 20.0383 16.6258 20.075 16.6258 20.1181C16.6258 20.3126 16.7025 20.4843 16.8429 20.6246C16.9833 20.765 17.155 20.8417 17.3494 20.8417C17.7165 20.8417 17.9381 20.665 18.0248 20.287L18.8448 16.5967C18.942 16.2078 18.9078 15.9119 18.7242 15.7283L17.2529 14.2571L18.8448 12.3998L19.882 13.437C19.99 13.5447 20.1275 13.6058 20.2679 13.6058C20.4514 13.6058 20.6258 13.5264 20.7985 13.3646L22.4869 11.6763C22.5732 11.5682 22.6075 11.444 22.6075 11.3145C22.6075 11.1527 22.552 11.0125 22.4386 10.9044C22.3253 10.7963 22.204 10.7597 22.0527 10.7597C21.9015 10.7597 21.7773 10.794 21.6909 10.8803L20.292 12.2792L18.6036 10.5909C18.4741 10.4611 18.3156 10.3979 18.1212 10.3979L15.4922 10.3979ZM22.6798 12.1345L18.4348 20.7453H18.8931L23.0899 12.3275L22.6798 12.1345ZM9.00401 13.1958V13.63H12.6702V13.1958H9.00401ZM8.45828 16.5849L8.45172 17.7524L12.9396 20.9379C13.2452 21.1372 13.3543 21.118 13.7216 21.1452C14.1029 21.1627 14.6999 20.8461 14.9234 20.5265L14.3759 20.0242C14.2418 20.218 14.0073 20.3793 13.7823 20.369C13.6749 20.364 13.5574 20.3265 13.4646 20.2625L8.45828 16.5849ZM22.5834 20.89C22.5825 21.1256 22.4852 21.3741 22.2939 21.493C22.2026 21.5497 22.0932 21.5897 21.9804 21.5895L10.0894 21.6136V22.506L21.9321 22.4578C22.2969 22.4492 22.3617 22.3779 22.6798 22.1925C23.0041 21.991 23.3277 21.3765 23.3311 20.9865L22.5834 20.89Z" fill="#E2E2FF"/>
</svg>
